src/site/assets/img/icons/fa-male-lt-grey.svg

<?xml version="1.0" encoding="UTF-8"?>
<svg width="23px" height="39px" viewBox="0 0 23 39" version="1.1" xmlns="http://www.w3.org/2000/svg" xmlns:xlink="http://www.w3.org/1999/xlink">
    <!-- Generator: Sketch 42 (36781) - http://www.bohemiancoding.com/sketch -->
    <title>lt-grey</title>
    <desc>Created with Sketch.</desc>
    <defs></defs>
    <g id="Page-1" stroke="none" stroke-width="1" fill="none" fill-rule="evenodd">
        <g id="lt-grey" fill="#F1F1F1">
            <g id="fa-male">
                <path d="M0.769615385,25.0486364 C1.16769231,25.4865 1.68430769,25.6850455 2.27876923,25.6850455 C2.83607692,25.6850455 3.35092308,25.4865 3.749,25.0486364 C4.186,24.6497727 4.38415385,24.1339091 4.38415385,23.5755 L4.38415385,15.7772727 L5.81369231,15.7772727 L5.81369231,36.0306818 C5.81369231,36.7060909 6.05253846,37.2645 6.52846154,37.7803636 C7.04507692,38.259 7.63953846,38.4965455 8.31538462,38.4965455 C8.99123077,38.4965455 9.54676923,38.259 10.0633846,37.7803636 C10.5393077,37.2645 10.7781538,36.7060909 10.7781538,35.9899091 L10.7781538,25.6850455 L12.2076923,25.6850455 L12.2076923,35.9899091 C12.2076923,36.7060909 12.4465385,37.2645 12.9224615,37.7803636 C13.4390769,38.259 13.9946154,38.4965455 14.6686923,38.4965455 C15.3445385,38.4965455 15.9407692,38.259 16.4556154,37.7803636 C16.9333077,37.2645 17.1721538,36.7060909 17.1721538,36.0306818 L17.1721538,15.7772727 L18.561,15.7772727 L18.561,23.5755 C18.561,24.1339091 18.7591538,24.6497727 19.1961538,25.0486364 C19.5942308,25.4865 20.1108462,25.6850455 20.7053077,25.6850455 C21.2608462,25.6850455 21.7774615,25.4865 22.1755385,25.0486364 C22.6125385,24.6497727 22.8106923,24.1339091 22.8106923,23.5755 L22.8106923,14.3449091 C22.8106923,13.1500909 22.4126154,12.1555909 21.5793077,11.3206364 C20.746,10.4856818 19.7534615,10.0868182 18.561,10.0868182 L4.38415385,10.0868182 C3.19346154,10.0868182 2.20092308,10.4856818 1.36584615,11.3206364 C0.532538462,12.1555909 0.134461538,13.1500909 0.134461538,14.3449091 L0.134461538,23.5755 C0.134461538,24.1339091 0.334384615,24.6497727 0.769615385,25.0486364 L0.769615385,25.0486364 Z M11.4929231,9.40963636 C12.8817692,9.40963636 14.0335385,8.93277273 15.0260769,7.93827273 C15.9796923,6.98277273 16.4556154,5.82872727 16.4556154,4.43713636 C16.4556154,3.04377273 15.9796923,1.88972727 15.0260769,0.936 C14.0335385,-0.0602727273 12.8817692,-0.537136364 11.4929231,-0.537136364 C10.1023077,-0.537136364 8.95053846,-0.0602727273 7.958,0.936 C7.00438462,1.88972727 6.52846154,3.04377273 6.52846154,4.43713636 C6.52846154,5.82872727 7.00438462,6.98277273 7.958,7.93827273 C8.95053846,8.93277273 10.1023077,9.40963636 11.4929231,9.40963636 L11.4929231,9.40963636 Z" id="Fill-19"></path>
            </g>
        </g>
    </g>
</svg>

<svg xmlns="http://www.w3.org/2000/svg" viewBox="0 0 23 39" width="23px" height="39px"><path d="M.76962 25.04864c.39807.43786.91469.6364 1.50915.6364.5573 0 1.07215-.19854 1.47023-.6364.437-.39887.63515-.91473.63515-1.47314v-7.79823H5.8137v20.25341c0 .67541.23885 1.23382.71477 1.74968.51662.47864 1.11108.71619 1.78692.71619.67585 0 1.23139-.23755 1.748-.71619.47593-.51586.71477-1.07427.71477-1.79045V25.68505h1.42954V35.9899c0 .71618.23885 1.27459.71477 1.79045.51662.47864 1.07216.71619 1.74623.71619.67585 0 1.27208-.23755 1.78693-.71619.47769-.51586.71653-1.07427.71653-1.74968v-20.2534H18.561v7.79822c0 .5584.19815 1.07427.63515 1.47314.39808.43786.9147.6364 1.50916.6364.55554 0 1.07215-.19854 1.47023-.6364.437-.39887.63515-.91473.63515-1.47314v-9.2306c0-1.1948-.39807-2.1893-1.23138-3.02426-.83331-.83496-1.82585-1.23382-3.01831-1.23382H4.38415c-1.19069 0-2.18323.39886-3.0183 1.23382-.83331.83495-1.23139 1.82945-1.23139 3.02427v9.23059c0 .5584.19992 1.07427.63516 1.47314zm10.7233-15.639c1.38885 0 2.54062-.47687 3.53316-1.47137.95361-.9555 1.42954-2.10954 1.42954-3.50113 0-1.39337-.47593-2.54741-1.42954-3.50114-.99254-.99627-2.14431-1.47314-3.53316-1.47314-1.39061 0-2.54238.47687-3.53492 1.47314-.95362.95373-1.42954 2.10777-1.42954 3.50114 0 1.39159.47592 2.54563 1.42954 3.50113.99254.9945 2.1443 1.47137 3.53492 1.47137z" fill="#F1F1F1" fill-rule="evenodd"/></svg>
